!!!OTL: Waise und Stiefmutter Ein kleines Maedchen zart
!!!ARE: Europa, Osteuropa, Ungarn, Munkacz, Erwinsdorf
!!!YOR: 5, S. 285
!!    1943 aufgezeichnet
!!!SCT: Q0116A
!!!YEM: Copyright 1995, estate of Helmut Schaffrath.
**kern
*ICvox
*Ivox
*M6/8
*k[f#]
*G:
{8d
=1
4g
8g
8g
8f#
8g
=2
4.a
4r}
{8d
=3
4a
8a
8a
8g
8a
=4
4.b
4r}
{8dd
=5
4b
8b
8b
8a
8b
=6
4.cc
4r}
{8cc
=7
4b
8g
4a
8f#
=8
4.g
4r}
==
!!!AGN: Ballade, Waise, boese Stiefmutter, Klage am Grab, Geist
!!!ONB: ESAC (Essen Associative Code) Database: BALLADE
!!!AMT: compound duple
!!!AIN: vox
!!!EED: Helmut Schaffrath
!!!EEV: 1.0
*-
